source/img/sprite/ok.svg

<svg width="14" height="22" viewBox="0 0 14 22" fill="none" xmlns="http://www.w3.org/2000/svg">
<path d="M7 3.32798C8.32292 3.32798 9.39879 4.38262 9.39879 5.67944C9.39879 6.97235 8.32292 8.02699 7 8.02699C5.67708 8.02699 4.60121 6.97235 4.60121 5.67944C4.60121 4.38262 5.67708 3.32798 7 3.32798ZM7 11.355C10.1957 11.355 12.7938 8.8082 12.7938 5.67944C12.7938 2.54676 10.1957 0 7 0C3.80427 0 1.21023 2.54676 1.21023 5.67944C1.21023 8.8082 3.80427 11.355 7 11.355ZM9.343 15.9876C10.5225 15.722 11.6581 15.2649 12.7061 14.6204C13.499 14.1322 13.7381 13.1049 13.24 12.3276C12.738 11.5464 11.694 11.312 10.897 11.8042C8.52614 13.265 5.47386 13.265 3.09898 11.8042C2.30603 11.312 1.25805 11.5464 0.759964 12.3276C0.261876 13.1049 0.500958 14.1322 1.29391 14.6204C2.34189 15.2649 3.47753 15.722 4.657 15.9876L1.41744 19.1593C0.755978 19.8077 0.755978 20.8624 1.41744 21.5108C1.75215 21.835 2.1825 21.999 2.61683 21.999C3.05116 21.999 3.4855 21.835 3.82021 21.5108L7 18.3937L10.1838 21.5108C10.8452 22.1631 11.9171 22.1631 12.5826 21.5108C13.244 20.8624 13.244 19.8077 12.5826 19.1593L9.343 15.9876Z" fill="currentColor"/>
</svg>

<svg xmlns="http://www.w3.org/2000/svg" width="14" height="22" fill="none"><path fill="currentColor" d="M7 3.328c1.323 0 2.399 1.055 2.399 2.351 0 1.293-1.076 2.348-2.399 2.348S4.601 6.972 4.601 5.679c0-1.296 1.076-2.351 2.399-2.351Zm0 8.027c3.196 0 5.794-2.547 5.794-5.676C12.794 2.547 10.196 0 7 0 3.804 0 1.21 2.547 1.21 5.68c0 3.128 2.594 5.675 5.79 5.675Zm2.343 4.633a11.044 11.044 0 0 0 3.363-1.368 1.644 1.644 0 0 0 .534-2.292 1.715 1.715 0 0 0-2.343-.524 7.486 7.486 0 0 1-7.798 0 1.71 1.71 0 0 0-2.339.524 1.644 1.644 0 0 0 .534 2.292 11.044 11.044 0 0 0 3.363 1.368l-3.24 3.171a1.641 1.641 0 0 0 0 2.352 1.727 1.727 0 0 0 2.403 0L7 18.394l3.184 3.117a1.715 1.715 0 0 0 2.399 0 1.641 1.641 0 0 0 0-2.352l-3.24-3.171Z"/></svg>
